!!!COM: D'India, Sigismondo
!!!CDT:
!!!PTL: Il terzo libro de madrigali a cinque voci
!!!PPP: Venice
!!!PPR: Gardano-B.Magni
!!!PDT: 1615
!!!PUB-format:
!!!RISM: I 27
!!!OTL: Dispietata pietate
!!!AGN: Madrigal
!!!SCT: Tam3021324a
!!!SCA: Tam3021324a
!!!original-voices: 5
!!!extant-voices: 5
!!!complete: Y
!!!final: A
**kern	**text	**kern	**text	**kern	**text	**kern	**text	**kern	**text
*part5	*part5	*part4	*part4	*part3	*part3	*part2	*part2	*part1	*part1
*staff5	*staff5	*staff4	*staff4	*staff3	*staff3	*staff2	*staff2	*staff1	*staff1
*I"Basso	*	*I"Tenore	*	*I"Alto	*	*I"Quinto	*	*I"Canto	*
*I'B	*	*I'T	*	*I'A	*	*I'V	*	*I'C	*
*oclefF4	*	*oclefC4	*	*oclefC3	*	*oclefC1	*	*oclefC1	*
*clefF4	*	*clefGv2	*	*clefG2	*	*clefG2	*	*clefG2	*
*k[]	*	*k[]	*	*k[]	*	*k[]	*	*k[]	*
*C:	*	*C:	*	*C:	*	*C:	*	*C:	*
*omet(C)	*	*omet(C)	*	*omet(C)	*	*omet(C)	*	*omet(C)	*
*M4/2	*	*M4/2	*	*M4/2	*	*M4/2	*	*M4/2	*
=1	=1	=1	=1	=1	=1	=1	=1	=1	=1
2r	.	2r	.	2r	.	2r	.	2r	.
2.AA	Di-	2.c	Di-	2.e	Di-	2.a	Di-	2.cc	Di-
4AA	-spie-	4d	-spie-	4d	-spie-	4g	-spie-	4b	-spie-
[2AA	-ta-	2d	-ta-	2d	-ta-	[2g	-ta-	[2b	-ta-
=2	=2	=2	=2	=2	=2	=2	=2	=2	=2
2AA]	.	2e	-ta	2.c	-ta	2g]	.	2b]	.
4AA	-ta	4r	.	.	.	4f#X	-ta	4a	-ta
4AA	pie-	4c	pie-	4c	pie-	4f#X	pie-	4a	pie-
1E	-ta-	1B	-ta-	1e	-ta-	1g#X	-ta-	1b	-ta-
=3	=3	=3	=3	=3	=3	=3	=3	=3	=3
2E	-te	4B	-te	2e	-te	2g#X	-te	2b	-te
.	.	8B	Fu	.	.	.	.	.	.
.	.	8B	la	.	.	.	.	.	.
4r	.	4B	tua	4r	.	4r	.	4r	.
8E	Fu	8B	ve-	8e	Fu	8gnXi	Fu	8b	Fu
8E	la	8B	-ra-	8e	la	8g	la	8b	la
4E	tua	1G	-men-	4e	tua	4g	tua	4b	tua
8E	ve-	.	.	8e	ve-	8g	ve-	8b	ve-
8E	-ra-	.	.	8e	-ra-	8g	-ra-	8b	-ra-
[2BB	-men-	.	.	[2d	-men-	[2g	-men-	[2dd	-men-
=4	=4	=4	=4	=4	=4	=4	=4	=4	=4
4BB]	.	4G	-te, o	2d]	.	2g]	.	2dd]	.
4BB	-te, o	2d	Da-	.	.	.	.	.	.
2.D	Da-	.	.	4A	-te, o	4a	-te, o	4f#X	-te, o
.	.	4B	-fne, al-	2d	Daf-	2b	Daf-	2g	Daf-
.	.	4B	-lo-	.	.	.	.	.	.
4C#X	-fne, al-	4e	-ra	4e	-ne, al-	4a	-ne, al-	4g	-ne, al-
2D	-lo-	4r	.	2A	-lo-	[2a	-lo-	[2f#X	-lo-
.	.	[4d	Che	.	.	.	.	.	.
=5	=5	=5	=5	=5	=5	=5	=5	=5	=5
4D	-ra	4d]	.	4A	-ra	4a]	.	4f#X]	.
2D	Che	16e	ri-	2f	Che	4a	-ra	4a	-ra
.	.	16d	-te-	.	.	.	.	.	.
.	.	16c	-ne-	.	.	.	.	.	.
.	.	16B	-sti il	.	.	.	.	.	.
.	.	1.A	dar-	.	.	2.f	Che	2.a	Che
16E	ri-	.	.	16g	ri-	.	.	.	.
16D	-te-	.	.	16f	-te-	.	.	.	.
16C	-ne-	.	.	16e	-ne-	.	.	.	.
16BB	-sti il	.	.	16d	-sti il	.	.	.	.
1AA	dar-	.	.	4.c#X	dar-	.	.	.	.
.	.	.	.	.	.	16g	ri-	16b	ri-
.	.	.	.	.	.	16f	-te-	16a	-te-
.	.	.	.	8d	.	16e	-ne-	16g	-ne-
.	.	.	.	.	.	16d	-sti il	16f	-sti il
.	.	.	.	2e	.	2c#X	dar-	2e	dar-
=6	=6	=6	=6	=6	=6	=6	=6	=6	=6
2.D	-do:	1A	-do:	1f#X	-do:	1d	-do:	1d	-do:
4D	pe-	.	.	.	.	.	.	.	.
[1GG	-rò	4r	.	4d	pe-	4r	.	4r	.
.	.	4B	pe-	2g	-rò	4g	pe-	4dd	pe-
.	.	[2B	-rò	.	.	[2b	-rò	[2dd	-rò
.	.	.	.	4f#i	che'l	.	.	.	.
=7	=7	=7	=7	=7	=7	=7	=7	=7	=7
2GG]	.	2B]	.	2e	mio,	2b]	.	2dd]	.
2AA	che'l	2c	che'l	2e	che'l	2a	che'l	2cc	che'l
2BB	mio	2d	mio	2d	mio	2a	mio	2cc	mio
2C	mo-	2e	mo-	2G	mo-	2g	mo-	2b	mo-
=8	=8	=8	=8	=8	=8	=8	=8	=8	=8
1D	-ri-	1A	-ri-	1d	-ri-	1f#X	-ri-	1a	-ri-
[1D	-re	1A	-re	1d	-re	2f#X	-re	2a	-re
.	.	.	.	.	.	4a	Più	4dd	Più
.	.	.	.	.	.	4a	a-	4dd	a-
=9	=9	=9	=9	=9	=9	=9	=9	=9	=9
1D]	.	4d	Più	4f	Più	1.b-X	-ma-	1.dd	-ma-
.	.	4d	a-	4f	a-	.	.	.	.
.	.	1d	-ma-	1f	-ma-	.	.	.	.
4F	Più	.	.	.	.	.	.	.	.
4F	a-	.	.	.	.	.	.	.	.
[2F	-ma-	4e	-ro	4e	-ro	4.a	-ro	4cc	-ro
.	.	4d	sa-	4f	sa-	.	.	4b-X	sa-
.	.	.	.	.	.	8g	sa-	.	.
=10	=10	=10	=10	=10	=10	=10	=10	=10	=10
2F]	.	2c	-rà,	1.f	-rà,	1.a	-rà,	2cc	-rà,
4E	-ro	1f	quan-	.	.	.	.	1dd	quan-
4D	sa-	.	.	.	.	.	.	.	.
2F	-rà,	.	.	.	.	.	.	.	.
[2F	quan-	4A	-to	[2f	quan-	[2a	quan-	4cc	-to
.	.	4A	più	.	.	.	.	4cc	più
=11	=11	=11	=11	=11	=11	=11	=11	=11	=11
2F]	.	2.c	tar-	2f]	.	2a]	.	1.f	tar-
4AA	-to	.	.	4a	-to	4cc	-to	.	.
4AA	più	16FL	.	4a	più	4cc	più	.	.
.	.	16G	.	.	.	.	.	.	.
.	.	16A	.	.	.	.	.	.	.
.	.	16FJ	.	.	.	.	.	.	.
1C	tar-	1G	.	1c	tar-	1g	tar-	.	.
.	.	.	.	.	.	.	.	2e	.
=12	=12	=12	=12	=12	=12	=12	=12	=12	=12
1FF	-do.	1A	-do.	1c	-do.	1f	-do.	1f	-do.
4r	.	4r	.	4r	.	4r	.	4r	.
4FF	Et	4A	Et	4c	Et	4f	Et	4a	Et
4FF	hor	4A	hor	4f	hor	4a	hor	4cc	hor
4GG	per-	4B	per-	4d	per-	4g	per-	4b	per-
=13	=13	=13	=13	=13	=13	=13	=13	=13	=13
4AA	-ché	4c	-ché	4c	-ché	4f	-ché	4a	-ché
4BB	m'av-	4B	m'av-	4d	m'av-	4f	m'av-	4g	m'av-
2C	-vol-	2G	-vol-	2c	-vol-	2e	-vol-	2g	-vol-
4C	-gi	4G	-gi	4c	-gi	4e	-gi	4g	-gi
4GG	Per	4d	Per	4B	Per	4g	Per	4b	Per
4GG	sì	4B	sì	4B	sì	4b	sì	4dd	sì
4AA	di-	4e	di-	4c	di-	4a	di-	4cc	di-
=14	=14	=14	=14	=14	=14	=14	=14	=14	=14
4BB	-ver-	4d	-ver-	4d	-ver-	4g	-ver-	4b	-ver-
4C	-se	4c	-se	4e	-se	4g	-se	4a	-se
8D	stra-	8A	stra-	8d	stra-	8f#X	stra-	8a	stra-
8D	-de e	8A	-de e	8A	-de e	8f#X	-de e	8a	-de e
8C	per	8A	per	8c	per	8f#X	per	8a	per
8BB	sì	8G	sì	8d	sì	8g	sì	8b	sì
2AA	va-	2c	va-	2e	va-	8a	va-	8cc	va-
.	.	.	.	.	.	8b	-rii	8dd	-rii
.	.	.	.	.	.	2cc	Ra-	2ee	Ra-
4AA	-rii	4c	-rii	4f	-rii	.	.	.	.
4BB	Ra-	4d	Ra-	4g	Ra-	[4b	-gio-	[4dd	-gio-
=15	=15	=15	=15	=15	=15	=15	=15	=15	=15
4C	-gio-	4e	-gio-	4e	-gio-	4b]	.	4dd]	.
4D	-na-	4f	-na-	4A	-na-	4a	-na-	4cc	-na-
4.E	-men-	4.B	-men-	4.e	-men-	4.a	-men-	4.b	-men-
8E	-ti in	8B	-ti in	8e	-ti in	8g#X	-ti in	8b	-ti in
2A	va-	2c#X	va-	2e	va-	2a	va-	2a	va-
2A	-no?	2c#X	-no?	2e	-no?	2a	-no?	2a	-no?
=16	=16	=16	=16	=16	=16	=16	=16	=16	=16
4r	.	8e	di	4r	.	4r	.	4r	.
.	.	8B	che	.	.	.	.	.	.
8A	di	2cni	te-	8e	di	8cc	di	8a	di
8E	che	.	.	8g	che	8g	che	8cc	che
2.F	te-	.	.	2.f	te-	2.a	te-	2.cc	te-
.	.	4c	-mi?	.	.	.	.	.	.
.	.	8r	.	.	.	.	.	.	.
.	.	8c	Te-	.	.	.	.	.	.
4F	-mi?	8c	-mi	4f	-mi?	4a	-mi?	4cc	-mi?
.	.	8c	ch'io	.	.	.	.	.	.
8r	.	[2c	non	8r	.	8r	.	8r	.
8F	Te-	.	.	8f	Te-	8a	Te-	8cc	Te-
8F	-mi	.	.	8f	-mi	8a	-mi	8cc	-mi
8F	ch'io	.	.	8f	ch'io	8a	ch'io	8cc	ch'io
=17	=17	=17	=17	=17	=17	=17	=17	=17	=17
4F	non	4c]	.	4f	non	4a	non	4.cc	non
4E	m'uc-	4G	m'uc-	4g	m'uc-	4g	m'uc-	.	.
.	.	.	.	.	.	.	.	8dd	m'uc-
2.G	-ci-	2.d	-ci-	2.g	-ci-	2.b	-ci-	2.dd	-ci-
4G	-da?	4d	-da?	4g	-da?	4b	-da?	4dd	-da?
4r	.	4r	.	4r	.	4r	.	4r	.
8G	te-	8d	te-	8g	te-	8b	te-	8dd	te-
8G	-mi	8d	-mi	8g	-mi	8b	-mi	8dd	-mi
=18	=18	=18	=18	=18	=18	=18	=18	=18	=18
4G	del	4d	del	4g	del	4b	del	4.dd	del
4F#X	mio	4A	mio	4a	mio	4a	mio	.	.
.	.	.	.	.	.	.	.	8dd	mio
2A	be-	2e	be-	2a	be-	2cc#X	be-	2ee	be-
1A	-ne?	2e	-ne?	1a	-ne?	1cc#X	-ne?	1ee	-ne?
.	.	[2e	Deh,	.	.	.	.	.	.
=19	=19	=19	=19	=19	=19	=19	=19	=19	=19
0r	.	4e]	.	2.f	Deh,	0r	.	0a	Deh,
.	.	8d	la-	.	.	.	.	.	.
.	.	8d	-scia-	.	.	.	.	.	.
.	.	8d	-mi	.	.	.	.	.	.
.	.	8d	mo-	.	.	.	.	.	.
.	.	2d	-rir	8e	la-	.	.	.	.
.	.	.	.	8e	-scia-	.	.	.	.
.	.	.	.	8e	-mi	.	.	.	.
.	.	.	.	8e	mo-	.	.	.	.
.	.	4c	in	2e	-rir	.	.	.	.
.	.	[2F	tan-	.	.	.	.	.	.
.	.	.	.	4d	in	.	.	.	.
=20	=20	=20	=20	=20	=20	=20	=20	=20	=20
0r	.	4F]	.	2c	tan-	2.a	Deh,	2r	.
.	.	4E	-te	.	.	.	.	.	.
.	.	1D	pe-	2f	-te	.	.	2.b-X	Deh,
.	.	.	.	.	.	8g	la-	.	.
.	.	.	.	.	.	8g	-scia-	.	.
.	.	.	.	1e	pe-	8g	-mi	.	.
.	.	.	.	.	.	8g	mo-	.	.
.	.	.	.	.	.	2g	-rir	8a	la-
.	.	.	.	.	.	.	.	8a	-scia-
.	.	2C#X	.	.	.	.	.	8a	-mi
.	.	.	.	.	.	.	.	8a	mo-
.	.	.	.	.	.	4g	in	[4a	-rir
=21	=21	=21	=21	=21	=21	=21	=21	=21	=21
0r	.	0D	-ne,	2a	-ne,	4.f#X	tan-	4a]	.
.	.	.	.	.	.	.	.	4a	in
.	.	.	.	.	.	16gL	.	.	.
.	.	.	.	.	.	16aJ	.	.	.
.	.	.	.	2r	.	2b-X	.	1g	tan-
.	.	.	.	2r	.	2a	-te,	.	.
.	.	.	.	[2bnX	Deh,	2dd	Deh,	2f#X	-te
=22	=22	=22	=22	=22	=22	=22	=22	=22	=22
1r	.	0E	Deh,	4b]	.	2.cc	Deh,	[0e	pe-
.	.	.	.	8a	la-	.	.	.	.
.	.	.	.	8a	-scia-	.	.	.	.
.	.	.	.	8a	-mi	.	.	.	.
.	.	.	.	8a	mo-	.	.	.	.
.	.	.	.	2a	-rir	8b	la-	.	.
.	.	.	.	.	.	8b	-scia-	.	.
2r	.	.	.	.	.	8b	-mi	.	.
.	.	.	.	.	.	8b	mo-	.	.
.	.	.	.	4g	in	2b	-rir	.	.
[2E	Deh,	.	.	2c	tan-	.	.	.	.
.	.	.	.	.	.	4a	in	.	.
=23	=23	=23	=23	=23	=23	=23	=23	=23	=23
2E]	.	0r	.	2B	-te	2g	tan-	1e]	.
2r	.	.	.	1A	pe-	2c	-te	.	.
2r	.	.	.	.	.	1B	pe-	1d	-ne,
2B	Deh,	.	.	2G#X	.	.	.	.	.
=24	=24	=24	=24	=24	=24	=24	=24	=24	=24
4r	.	2.c	Deh,	2A	-ne,	0e	-ne,	0r	.
8A	la-	.	.	.	.	.	.	.	.
8A	-scia-	.	.	.	.	.	.	.	.
8A	-mi	.	.	2r	.	.	.	.	.
8A	mo-	.	.	.	.	.	.	.	.
2A	-rir	8B	la-	.	.	.	.	.	.
.	.	8B	-scia-	.	.	.	.	.	.
.	.	8B	-mi	1r	.	.	.	.	.
.	.	8B	mo-	.	.	.	.	.	.
4G	in	2B	-rir	.	.	.	.	.	.
[2C	tan-	.	.	.	.	.	.	.	.
.	.	4A	in	.	.	.	.	.	.
=25	=25	=25	=25	=25	=25	=25	=25	=25	=25
4C]	.	2G	tan-	2.e	Deh,	1r	.	0r	.
4BB	-te	.	.	.	.	.	.	.	.
1AA	pe-	2c	-te	.	.	.	.	.	.
.	.	.	.	8e	la-	.	.	.	.
.	.	.	.	8e	-scia-	.	.	.	.
.	.	1B	pe-	8d	-mi	2r	.	.	.
.	.	.	.	8d	mo-	.	.	.	.
.	.	.	.	2d	-rir	.	.	.	.
2GG#X	.	.	.	.	.	[2ee	Deh,	.	.
.	.	.	.	4d	in	.	.	.	.
=26	=26	=26	=26	=26	=26	=26	=26	=26	=26
[0AA	-ne,	0A	-ne,	4c	tan-	4ee]	.	2.ff	Deh,
.	.	.	.	8BL	.	8dd	la-	.	.
.	.	.	.	8AJ	.	8dd	-scia-	.	.
.	.	.	.	1a	.	8dd	-mi	.	.
.	.	.	.	.	.	8dd	mo-	.	.
.	.	.	.	.	.	2dd	-rir	8ee	la-
.	.	.	.	.	.	.	.	8ee	-scia-
.	.	.	.	.	.	.	.	8ee	-mi
.	.	.	.	.	.	.	.	8ee	mo-
.	.	.	.	.	.	4cc	in	2ee	-rir
.	.	.	.	2a	-te	2f	tan-	.	.
.	.	.	.	.	.	.	.	4dd	in
=27	=27	=27	=27	=27	=27	=27	=27	=27	=27
1AA]	.	0r	.	1A	pe-	2e	-te	2cc	tan-
.	.	.	.	.	.	1d	pe-	2f	-te
2r	.	.	.	1A	-ne,	.	.	1e	pe-
[2A	Deh,	.	.	.	.	2c#X	.	.	.
=28	=28	=28	=28	=28	=28	=28	=28	=28	=28
4A]	.	2.B-X	Deh,	0r	.	1d	-ne,	1d	-ne,
8G	la-	.	.	.	.	.	.	.	.
8G	-scia-	.	.	.	.	.	.	.	.
8G	-mi	.	.	.	.	.	.	.	.
8G	mo-	.	.	.	.	.	.	.	.
2G	-rir	8A	la-	.	.	.	.	.	.
.	.	8A	-scia-	.	.	.	.	.	.
.	.	8A	-mi	.	.	2r	.	1r	.
.	.	8A	mo-	.	.	.	.	.	.
4F	in	2A	-rir	.	.	.	.	.	.
[2E	tan-	.	.	.	.	[2b	Deh,	.	.
.	.	4G	in	.	.	.	.	.	.
=29	=29	=29	=29	=29	=29	=29	=29	=29	=29
2E]	.	2F	tan-	2r	.	4b]	.	2.cc	Deh,
.	.	.	.	.	.	8a	la-	.	.
.	.	.	.	.	.	8a	-scia-	.	.
2D	.	2f	-te	[2d	Deh,	8a	-mi	.	.
.	.	.	.	.	.	8a	mo-	.	.
.	.	.	.	.	.	2a	-rir	8b	la-
.	.	.	.	.	.	.	.	8b	-scia-
[1E	-te	1e	pe-	2d]	.	.	.	8b	-mi
.	.	.	.	.	.	.	.	8b	mo-
.	.	.	.	.	.	4g	in	2b	-rir
.	.	.	.	8c	la-	2cc	tan-	.	.
.	.	.	.	8c	-scia-	.	.	.	.
.	.	.	.	8c	-mi	.	.	4a	in
.	.	.	.	8c	mo-	.	.	.	.
=30	=30	=30	=30	=30	=30	=30	=30	=30	=30
0E]	.	1e	-ne,	2c	rir	1.b	-te	2a	tan-
.	.	.	.	2B	in	.	.	2g	-te
.	.	4r	.	2.e	tan-	.	.	2.cc	pe-
.	.	4g	in	.	.	.	.	.	.
.	.	[2e	tan-	.	.	[2a	pe-	.	.
.	.	.	.	4A	te	.	.	8ddL	.
.	.	.	.	.	.	.	.	8eeJ	.
=31	=31	=31	=31	=31	=31	=31	=31	=31	=31
1E	pe-	4e]	.	1B	pe-	2a]	.	1b	.
.	.	4e	-te	.	.	.	.	.	.
.	.	2d	pe-	.	.	2g#X	.	.	.
=32	=32	=32	=32	=32	=32	=32	=32	=32	=32
00AAl	-ne.	00c#Xl	-ne.	00el	-ne.	00al	-ne.	00al	-ne.
==	==	==	==	==	==	==	==	==	==
*-	*-	*-	*-	*-	*-	*-	*-	*-	*-
!!!system-decoration: [*]
!!!RDF**kern: i = editorial accidental
!!!RDF**kern: l = terminal long
!!!ENC: Emiliano Ricciardi
!!!END: 2018/08/25
!!!EED: Coluzzi, Seth
!!!EEV: 2019/01/21
!!!YEC: Copyright 2018 Emiliano Ricciardi, All Rights Reserved
!!!ONB: Translated from MusicXML on 2019/01/21
!!@@BEGIN:	VERSEDATA
!!@CATALOGNUM:	Tam3021324
!!@LAST_MODIFIED: 2020/07/12
!!@ACT:        III
!!@SCENE:      2
!!@VERSE:      1324
!!@TITLE:      Dispietata pietate
!!@MANUSRC:	A-Am, A-Au, A-Br, A-CM, A-F, A-Ub
!!@PRINTSRC:	A-1580D, A-1580M, A-1581B, A-1581B<sub>bis</sub>, A-1581M, A-1581M<sub>bis</sub>, A-1581O, A-1581V, A-1582B, A-1583M, A-1583V, A-1584A, A-1585C, A-1585V, A-1585V<sub>bis</sub>, A-1588B, A-1589M, A-1589V, A-1590Mb, A-1590Mv, A-1591M, A-1591W, A-1592B, A-1596B, A-1596M, A-1599Bf, A-1599Bp, A-1600R, A-1601Bf, A-1601Bp, A-1602B, A-1603Bf, A-1603Bv, A-1603Z, A-1605R, A-1606Z, A-1608D, A-1608DP, A-1609Bf, A-1609Bv, A-1609Z, A-1611D, A-1614GT, A-1617D, A-1618B, A-1619D, A-1619I, A-1620V, A-1622D, A-1623A, A-1624M, A-1624S, A-1624T, A-1625U, A-1628U, A-1632D, A-1634R
!!@@BEGIN:	VERSES
!!@ABOUTIT:	
!!@ABOUTEN:	
!!@EDITOR:	Solerti, Angelo
!!@EDITION_TITLE: Opere minori in versi di Torquato Tasso. Edizione critica sugli autografi e sulle antiche stampe.
!!@EDITION_LOC:	Bologna
!!@EDITION_PUB:	Zanichelli
!!@EDITION_DATE:  1895
!!@EDITION_VOL:	3
!!@EDITION_PAGE:
!!@TRANSLATOR:	Emiliano Ricciardi and Amyrose McCue Gill
!!@VERSE:	
!!	AMINTA: Dispietata pietade
!!	Fu la tua veramente, o Dafne, all'hora
!!	Che ritenesti il dardo;
!!	Però che 'l mio morire
!!	Più amaro sarà, quanto più tardo.
!!	Et or perché m'avolgi
!!	Per sì diverse strade e per sí vari
!!	Ragionamenti invano? di che temi?
!!	Ch'io non m'uccida? Temi del mio bene.
!!@TVERSE:
!!	AMINTA: Uncompassionate compassion
!!	Was yours, truly, O Daphne, when
!!	You held back the dart;
!!	Except that my death
!!	More bitter will be, the later it is.
!!	And now why do you lead me
!!	Along such diverging roads and along such varied
!!	[Lines of] reasoning in vain? Of what are you afraid?
!!	That I will not kill myself? You are afraid of my well being.
!!@@END:		VERSES
!!@NEW_CRIT_ED:   Torquato Tasso, <i>Aminta. "Princeps."</i>, ed. Matteo Navone, vol. 9 of Commissione Nazionale per l'Edizione delle opere del Tasso. Studi e Testi (Alessandria: Edizioni dell'Orso, 2014).
!!@ATTRIBUTION_ABOUT:	
!!@DATING:	1573
!!@DEDICATEE:	
!!@COMMENTARY:
!!@@END:		VERSEDATA
!!@@BEGIN: SETTING
!!@CATALOGNUM:	Tam3021324a
!!@ACT:		III
!!@SCENE:		2
!!@VERSE:		1324
!!@TITLE:		Dispietata pietate
!!@COMPOSER:	D'India, Sigismondo
!!@PRINCEPSTITLE:	Il terzo libro de madrigali a cinque voci
!!@PRINCEPSLOC:	Venice
!!@NORMLOC:	Venice
!!@NORMPUB:	Gardano-B.Magni
!!@NORMPUBSHORT:	Gardano-Magni
!!@PRINCEPSPUB:	Stampa del Gardano, appresso Bartolomeo Magni
!!@PRINCEPSYEAR:	1615
!!@PRINCEPSRISM:	I 27
!!@OVOICES:	5
!!@EXTANTVOICES:	5
!!@OMENSURATION:	C
!!@OCLEFS:	C1,C1,C3,C4,F4
!!@OTIME:		
!!@OKEYSIG:	-
!!@FINAL:		A
!!@TIMPEDITOR:	Coluzzi, Seth
!!@PARTS:		1 of 1
!!@REPRINTS:	
!!@@END: SETTING
